icons/sizelimit_dark.svg

<!--
  - The MIT License (MIT)
  -
  - Copyright (c) 2015-2024 Elior "Mallowigi" Boukhobza
  -
  - Permission is hereby granted, free of charge, to any person obtaining a copy
  - of this software and associated documentation files (the "Software"), to deal
  - in the Software without restriction, including without limitation the rights
  - to use, copy, modify, merge, publish, distribute, sublicense, and/or sell
  - copies of the Software, and to permit persons to whom the Software is
  - furnished to do so, subject to the following conditions:
  -
  - The above copyright notice and this permission notice shall be included in all
  - copies or substantial portions of the Software.
  -
  - THE SOFTWARE IS PROVIDED "AS IS", WITHOUT WARRANTY OF ANY KIND, EXPRESS OR
  - IMPLIED, INCLUDING BUT NOT LIMITED TO THE WARRANTIES OF MERCHANTABILITY,
  - FITNESS FOR A PARTICULAR PURPOSE AND NONINFRINGEMENT. IN NO EVENT SHALL THE
  - AUTHORS OR COPYRIGHT HOLDERS BE LIABLE FOR ANY CLAIM, DAMAGES OR OTHER
  - LIABILITY, WHETHER IN AN ACTION OF CONTRACT, TORT OR OTHERWISE, ARISING FROM,
  - OUT OF OR IN CONNECTION WITH THE SOFTWARE OR THE USE OR OTHER DEALINGS IN THE
  - SOFTWARE.
  -
  -->

<svg width="16px" height="16px" viewBox="0 0 24 24" fill="none" xmlns="http://www.w3.org/2000/svg">
  <defs>
    <mask id="Mask">
      <path fill-rule="evenodd" clip-rule="evenodd"
            d="M3.90684 0H20.0932C21.1043 0 21.4704 0.077 21.8405 0.223C22.2058 0.365058 22.5046 0.584565 22.6979 0.853C22.8952 1.124 23 1.393 23 2.137V21.863C23 22.606 22.8952 22.876 22.6979 23.147C22.5046 23.4154 22.2058 23.6349 21.8405 23.777C21.4704 23.923 21.1043 24 20.0932 24H3.90684C2.89707 24 2.52963 23.923 2.16083 23.777C1.79552 23.6349 1.4968 23.4154 1.30348 23.147C1.10479 22.876 1 22.607 1 21.863V2.137C1 1.394 1.10479 1.124 1.30212 0.853C1.49544 0.584565 1.79416 0.365058 2.15947 0.223C2.52963 0.077 2.89707 0 3.90684 0Z"
            fill="white"/>
      <path fill-rule="evenodd" clip-rule="evenodd"
            d="M3.87554 0.0830002H20.1245C21.0852 0.0830002 21.4336 0.157 21.7847 0.295C22.1319 0.429777 22.4159 0.638125 22.5999 0.893C22.7877 1.151 22.887 1.407 22.887 2.113V21.887C22.887 22.593 22.7877 22.849 22.5999 23.107C22.4159 23.3619 22.1319 23.5702 21.7847 23.705C21.4336 23.843 21.0852 23.917 20.1245 23.917H3.87554C2.91476 23.917 2.56637 23.843 2.21527 23.705C1.86861 23.5701 1.58509 23.3617 1.40146 23.107C1.21366 22.849 1.11295 22.593 1.11295 21.887V2.113C1.11295 1.407 1.21366 1.152 1.40146 0.893C1.58509 0.63827 1.86861 0.429938 2.21527 0.295C2.56637 0.157 2.91476 0.0830002 3.87554 0.0830002Z"
            fill="white"/>
      <path fill-rule="evenodd" clip-rule="evenodd"
            d="M3.89323 0.417H20.1081C20.9165 0.417 21.2104 0.479 21.5058 0.595C21.798 0.708636 22.037 0.884244 22.1916 1.099C22.3495 1.316 22.4339 1.532 22.4339 2.126V21.874C22.4339 22.469 22.3495 22.684 22.1916 22.901C22.037 23.1158 21.798 23.2914 21.5058 23.405C21.2091 23.522 20.9165 23.584 20.1081 23.584H3.89323C3.08351 23.584 2.79092 23.522 2.49425 23.405C2.20199 23.2914 1.96301 23.1158 1.80836 22.901C1.6505 22.684 1.56613 22.468 1.56613 21.874V2.127C1.56613 1.533 1.6505 1.317 1.80972 1.1C1.96437 0.885244 2.20335 0.709636 2.49561 0.596C2.79092 0.479 3.08351 0.417 3.89323 0.417Z"
            fill="white"/>
      <path fill-rule="evenodd" clip-rule="evenodd"
            d="M3.52307 1H20.4769C20.8811 1 21.0281 1.031 21.1751 1.09C21.321 1.14658 21.4404 1.23401 21.518 1.341C21.5983 1.45 21.6405 1.558 21.6405 1.855V22.145C21.6405 22.443 21.5983 22.55 21.518 22.659C21.4406 22.7664 21.3212 22.8542 21.1751 22.911C21.0281 22.969 20.8811 23.001 20.4769 23.001H3.52307C3.11889 23.001 2.97192 22.969 2.82494 22.911C2.67884 22.8542 2.55936 22.7664 2.482 22.659C2.40307 22.55 2.35952 22.443 2.35952 22.145V1.855C2.35952 1.558 2.40307 1.45 2.482 1.341C2.55936 1.23364 2.67884 1.14584 2.82494 1.089C2.97192 1.031 3.11889 1 3.52307 1Z"
            fill="black"/>
      <path fill-rule="evenodd" clip-rule="evenodd" fill="white"
            d="M9.48064 16.2364V8.09341H8.40226L5 9.70777L5.60459 10.9388L7.60293 10.0451V16.2364H9.48064ZM11.2363 12.1586C11.2363 9.76633 12.6416 8 15.1123 8C17.5467 8 19 9.76633 19 12.1586C19 14.5634 17.5714 16.3186 15.137 16.3186C12.6416 16.3186 11.2363 14.5634 11.2363 12.1586ZM13.114 12.1586C13.114 13.8092 13.877 14.7502 15.137 14.7502C16.5046 14.7502 17.1223 13.8092 17.1223 12.1586C17.1223 10.4982 16.4567 9.56836 15.1123 9.56836C13.8523 9.56836 13.114 10.5205 13.114 12.1586Z"
      />
    </mask>
  </defs>
  <g fill="#FFD600" data-iconColor="SizeLimit Dark" mask="url(#Mask)">
    <path fill-rule="evenodd" clip-rule="evenodd"
          d="M3.90684 0H20.0932C21.1043 0 21.4704 0.077 21.8405 0.223C22.2058 0.365058 22.5046 0.584565 22.6979 0.853C22.8952 1.124 23 1.393 23 2.137V21.863C23 22.606 22.8952 22.876 22.6979 23.147C22.5046 23.4154 22.2058 23.6349 21.8405 23.777C21.4704 23.923 21.1043 24 20.0932 24H3.90684C2.89707 24 2.52963 23.923 2.16083 23.777C1.79552 23.6349 1.4968 23.4154 1.30348 23.147C1.10479 22.876 1 22.607 1 21.863V2.137C1 1.394 1.10479 1.124 1.30212 0.853C1.49544 0.584565 1.79416 0.365058 2.15947 0.223C2.52963 0.077 2.89707 0 3.90684 0Z"
    />
    <path fill-rule="evenodd" clip-rule="evenodd"
          d="M3.87554 0.0830002H20.1245C21.0852 0.0830002 21.4336 0.157 21.7847 0.295C22.1319 0.429777 22.4159 0.638125 22.5999 0.893C22.7877 1.151 22.887 1.407 22.887 2.113V21.887C22.887 22.593 22.7877 22.849 22.5999 23.107C22.4159 23.3619 22.1319 23.5702 21.7847 23.705C21.4336 23.843 21.0852 23.917 20.1245 23.917H3.87554C2.91476 23.917 2.56637 23.843 2.21527 23.705C1.86861 23.5701 1.58509 23.3617 1.40146 23.107C1.21366 22.849 1.11295 22.593 1.11295 21.887V2.113C1.11295 1.407 1.21366 1.152 1.40146 0.893C1.58509 0.63827 1.86861 0.429938 2.21527 0.295C2.56637 0.157 2.91476 0.0830002 3.87554 0.0830002Z"
          fill="#FFD600"/>
    <path fill-rule="evenodd" clip-rule="evenodd"
          d="M3.89323 0.417H20.1081C20.9165 0.417 21.2104 0.479 21.5058 0.595C21.798 0.708636 22.037 0.884244 22.1916 1.099C22.3495 1.316 22.4339 1.532 22.4339 2.126V21.874C22.4339 22.469 22.3495 22.684 22.1916 22.901C22.037 23.1158 21.798 23.2914 21.5058 23.405C21.2091 23.522 20.9165 23.584 20.1081 23.584H3.89323C3.08351 23.584 2.79092 23.522 2.49425 23.405C2.20199 23.2914 1.96301 23.1158 1.80836 22.901C1.6505 22.684 1.56613 22.468 1.56613 21.874V2.127C1.56613 1.533 1.6505 1.317 1.80972 1.1C1.96437 0.885244 2.20335 0.709636 2.49561 0.596C2.79092 0.479 3.08351 0.417 3.89323 0.417Z"
    />
    <path fill-rule="evenodd" clip-rule="evenodd"
          d="M3.52307 1H20.4769C20.8811 1 21.0281 1.031 21.1751 1.09C21.321 1.14658 21.4404 1.23401 21.518 1.341C21.5983 1.45 21.6405 1.558 21.6405 1.855V22.145C21.6405 22.443 21.5983 22.55 21.518 22.659C21.4406 22.7664 21.3212 22.8542 21.1751 22.911C21.0281 22.969 20.8811 23.001 20.4769 23.001H3.52307C3.11889 23.001 2.97192 22.969 2.82494 22.911C2.67884 22.8542 2.55936 22.7664 2.482 22.659C2.40307 22.55 2.35952 22.443 2.35952 22.145V1.855C2.35952 1.558 2.40307 1.45 2.482 1.341C2.55936 1.23364 2.67884 1.14584 2.82494 1.089C2.97192 1.031 3.11889 1 3.52307 1Z"
          fill="white"/>
    <path fill-rule="evenodd" clip-rule="evenodd"
          d="M9.48064 16.2364V8.09341H8.40226L5 9.70777L5.60459 10.9388L7.60293 10.0451V16.2364H9.48064ZM11.2363 12.1586C11.2363 9.76633 12.6416 8 15.1123 8C17.5467 8 19 9.76633 19 12.1586C19 14.5634 17.5714 16.3186 15.137 16.3186C12.6416 16.3186 11.2363 14.5634 11.2363 12.1586ZM13.114 12.1586C13.114 13.8092 13.877 14.7502 15.137 14.7502C16.5046 14.7502 17.1223 13.8092 17.1223 12.1586C17.1223 10.4982 16.4567 9.56836 15.1123 9.56836C13.8523 9.56836 13.114 10.5205 13.114 12.1586Z"
    />
  </g>
</svg>

<svg xmlns="http://www.w3.org/2000/svg" xmlns:xlink="http://www.w3.org/1999/xlink" fill="none" viewBox="0 0 24 24"><defs><mask id="a"><path fill="#fff" fill-rule="evenodd" d="M3.907 0h16.186c1.011 0 1.377.077 1.747.223.366.142.665.362.858.63.197.271.302.54.302 1.284v19.726c0 .743-.105 1.013-.302 1.284-.193.268-.492.488-.858.63-.37.146-.736.223-1.747.223H3.907c-1.01 0-1.377-.077-1.746-.223a1.9 1.9 0 0 1-.858-.63c-.198-.271-.303-.54-.303-1.284V2.137c0-.743.105-1.013.302-1.284.193-.268.492-.488.857-.63C2.53.077 2.897 0 3.907 0" clip-rule="evenodd"/><path fill="#fff" fill-rule="evenodd" d="M3.876.083h16.249c.96 0 1.309.074 1.66.212.347.135.63.343.815.598.188.258.287.514.287 1.22v19.774c0 .706-.1.962-.287 1.22a1.8 1.8 0 0 1-.815.598c-.351.138-.7.212-1.66.212H3.875c-.96 0-1.309-.074-1.66-.212a1.8 1.8 0 0 1-.814-.598c-.187-.258-.288-.514-.288-1.22V2.113c0-.706.1-.961.288-1.22.184-.255.468-.463.814-.598.351-.138.7-.212 1.66-.212" clip-rule="evenodd"/><path fill="#fff" fill-rule="evenodd" d="M3.893.417h16.215c.808 0 1.102.062 1.398.178.292.114.531.29.686.504.157.217.242.433.242 1.027v19.748c0 .595-.085.81-.242 1.027-.155.215-.394.39-.686.504-.297.117-.59.179-1.398.179H3.893c-.81 0-1.102-.062-1.399-.179a1.5 1.5 0 0 1-.686-.504c-.157-.217-.242-.433-.242-1.027V2.127c0-.594.085-.81.244-1.027a1.5 1.5 0 0 1 .686-.504C2.79.479 3.084.417 3.893.417" clip-rule="evenodd"/><path fill="#000" fill-rule="evenodd" d="M3.523 1h16.954c.404 0 .551.031.698.09a.76.76 0 0 1 .343.251c.08.109.122.217.122.514v20.29c0 .298-.042.405-.122.514a.76.76 0 0 1-.343.252c-.147.058-.294.09-.698.09H3.523c-.404 0-.551-.032-.698-.09a.76.76 0 0 1-.343-.252c-.079-.109-.122-.216-.122-.514V1.855c0-.297.043-.405.122-.514a.76.76 0 0 1 .343-.252c.147-.058.294-.089.698-.089" clip-rule="evenodd"/><path fill="#fff" fill-rule="evenodd" d="M9.48 16.236V8.093H8.403L5 9.708l.605 1.23 1.998-.893v6.191zm1.756-4.077C11.236 9.766 12.642 8 15.112 8 17.547 8 19 9.766 19 12.159c0 2.404-1.429 4.16-3.863 4.16-2.495 0-3.9-1.756-3.9-4.16m1.878 0c0 1.65.763 2.591 2.023 2.591 1.368 0 1.985-.94 1.985-2.591 0-1.66-.665-2.59-2.01-2.59-1.26 0-1.998.951-1.998 2.59" clip-rule="evenodd"/></mask></defs><g fill="#ffd600" fill-rule="evenodd" clip-rule="evenodd" data-iconColor="SizeLimit Dark" mask="url(#a)"><path d="M3.907 0h16.186c1.011 0 1.377.077 1.747.223.366.142.665.362.858.63.197.271.302.54.302 1.284v19.726c0 .743-.105 1.013-.302 1.284-.193.268-.492.488-.858.63-.37.146-.736.223-1.747.223H3.907c-1.01 0-1.377-.077-1.746-.223a1.9 1.9 0 0 1-.858-.63c-.198-.271-.303-.54-.303-1.284V2.137c0-.743.105-1.013.302-1.284.193-.268.492-.488.857-.63C2.53.077 2.897 0 3.907 0"/><path d="M3.876.083h16.249c.96 0 1.309.074 1.66.212.347.135.63.343.815.598.188.258.287.514.287 1.22v19.774c0 .706-.1.962-.287 1.22a1.8 1.8 0 0 1-.815.598c-.351.138-.7.212-1.66.212H3.875c-.96 0-1.309-.074-1.66-.212a1.8 1.8 0 0 1-.814-.598c-.187-.258-.288-.514-.288-1.22V2.113c0-.706.1-.961.288-1.22.184-.255.468-.463.814-.598.351-.138.7-.212 1.66-.212"/><path d="M3.893.417h16.215c.808 0 1.102.062 1.398.178.292.114.531.29.686.504.157.217.242.433.242 1.027v19.748c0 .595-.085.81-.242 1.027-.155.215-.394.39-.686.504-.297.117-.59.179-1.398.179H3.893c-.81 0-1.102-.062-1.399-.179a1.5 1.5 0 0 1-.686-.504c-.157-.217-.242-.433-.242-1.027V2.127c0-.594.085-.81.244-1.027a1.5 1.5 0 0 1 .686-.504C2.79.479 3.084.417 3.893.417"/><path fill="#fff" d="M3.523 1h16.954c.404 0 .551.031.698.09a.76.76 0 0 1 .343.251c.08.109.122.217.122.514v20.29c0 .298-.042.405-.122.514a.76.76 0 0 1-.343.252c-.147.058-.294.09-.698.09H3.523c-.404 0-.551-.032-.698-.09a.76.76 0 0 1-.343-.252c-.079-.109-.122-.216-.122-.514V1.855c0-.297.043-.405.122-.514a.76.76 0 0 1 .343-.252c.147-.058.294-.089.698-.089"/><path d="M9.48 16.236V8.093H8.403L5 9.708l.605 1.23 1.998-.893v6.191zm1.756-4.077C11.236 9.766 12.642 8 15.112 8 17.547 8 19 9.766 19 12.159c0 2.404-1.429 4.16-3.863 4.16-2.495 0-3.9-1.756-3.9-4.16m1.878 0c0 1.65.763 2.591 2.023 2.591 1.368 0 1.985-.94 1.985-2.591 0-1.66-.665-2.59-2.01-2.59-1.26 0-1.998.951-1.998 2.59"/></g></svg>
